Newaita-dark/.DP/16/skype-status-connecting-1.svg

<svg xmlns="http://www.w3.org/2000/svg" xmlns:xlink="http://www.w3.org/1999/xlink" width="16px" height="16px" viewBox="0 0 16 16" version="1.1">
<g id="surface1">
<path style=" stroke:none;fill-rule:nonzero;fill:rgb(93.333334%,93.333334%,93.333334%);fill-opacity:1;" d="M 5.363281 2.101562 C 3.796875 2.101562 2.535156 3.363281 2.535156 4.929688 C 2.535156 5.402344 2.652344 5.847656 2.855469 6.238281 C 2.648438 6.808594 2.535156 7.425781 2.535156 8.070312 C 2.535156 11.03125 4.917969 13.414062 7.878906 13.414062 C 8.109375 13.414062 8.335938 13.398438 8.558594 13.371094 C 9.050781 13.789062 9.691406 14.042969 10.390625 14.042969 C 11.957031 14.042969 13.21875 12.78125 13.21875 11.214844 C 13.21875 10.738281 13.105469 10.292969 12.898438 9.902344 C 13.105469 9.332031 13.21875 8.714844 13.21875 8.070312 C 13.21875 5.109375 10.835938 2.726562 7.878906 2.726562 C 7.644531 2.726562 7.417969 2.742188 7.195312 2.769531 C 6.703125 2.351562 6.0625 2.101562 5.363281 2.101562 Z M 8.019531 5.273438 C 8.46875 5.273438 8.925781 5.386719 9.34375 5.628906 C 10.414062 6.246094 10.890625 7.492188 10.570312 8.628906 C 10.3125 9.242188 9.167969 8.582031 9.34375 7.921875 C 9.34375 7.464844 9.109375 7.019531 8.683594 6.773438 C 8.257812 6.527344 7.753906 6.542969 7.359375 6.773438 C 6.875 7.257812 5.730469 6.597656 6.132812 6.066406 C 6.632812 5.550781 7.320312 5.269531 8.019531 5.273438 Z M 5.683594 7.253906 C 6.105469 7.253906 6.660156 7.730469 6.53125 8.207031 C 6.53125 8.664062 6.769531 9.105469 7.195312 9.351562 C 7.621094 9.597656 8.121094 9.582031 8.519531 9.351562 C 8.761719 9.109375 9.167969 9.15625 9.464844 9.324219 C 9.761719 9.496094 9.945312 9.796875 9.746094 10.0625 C 8.917969 10.90625 7.605469 11.117188 6.53125 10.5 C 5.460938 9.878906 4.984375 8.632812 5.304688 7.496094 C 5.378906 7.324219 5.519531 7.253906 5.683594 7.253906 Z M 5.683594 7.253906 "/>
</g>
</svg>

<svg xmlns="http://www.w3.org/2000/svg" width="16pt" height="16pt" viewBox="0 0 16 16"><path d="M5.363 2.102a2.83 2.83 0 0 0-2.508 4.137 5.36 5.36 0 0 0-.32 1.831 5.331 5.331 0 0 0 6.024 5.301 2.823 2.823 0 0 0 1.832.672 2.822 2.822 0 0 0 2.828-2.828c0-.477-.114-.922-.32-1.313a5.36 5.36 0 0 0 .32-1.832 5.33 5.33 0 0 0-6.024-5.3 2.82 2.82 0 0 0-1.832-.668zM8.02 5.273c.449 0 .906.114 1.324.356a2.638 2.638 0 0 1 1.226 3c-.258.613-1.402-.047-1.226-.707a1.322 1.322 0 0 0-1.985-1.149c-.484.485-1.629-.175-1.226-.707a2.615 2.615 0 0 1 1.887-.793zm-2.336 1.98c.421 0 .976.477.847.954 0 .457.239.898.664 1.145.426.246.926.23 1.325 0 .242-.243.648-.196.945-.028.297.172.48.473.281.739a2.647 2.647 0 0 1-3.215.437 2.645 2.645 0 0 1-1.226-3.004.385.385 0 0 1 .379-.242zm0 0" fill="#bdbdbd"/></svg>
